icons/svg/tourist/lwn_ref.svg

<?xml version="1.0" encoding="UTF-8" standalone="no"?>
<!-- Created with Inkscape (http://www.inkscape.org/) -->

<svg
   xmlns:dc="http://purl.org/dc/elements/1.1/"
   xmlns:cc="http://creativecommons.org/ns#"
   xmlns:rdf="http://www.w3.org/1999/02/22-rdf-syntax-ns#"
   xmlns:svg="http://www.w3.org/2000/svg"
   xmlns="http://www.w3.org/2000/svg"
   xmlns:sodipodi="http://sodipodi.sourceforge.net/DTD/sodipodi-0.dtd"
   xmlns:inkscape="http://www.inkscape.org/namespaces/inkscape"
   version="1.0"
   width="580"
   height="580"
   id="svg2"
   sodipodi:version="0.32"
   inkscape:version="0.91 r"
   sodipodi:docname="lcn_ref.svg"
   inkscape:output_extension="org.inkscape.output.svg.inkscape">
  <metadata
     id="metadata2975">
    <rdf:RDF>
      <cc:Work
         rdf:about="">
        <dc:format>image/svg+xml</dc:format>
        <dc:type
           rdf:resource="http://purl.org/dc/dcmitype/StillImage" />
        <cc:license
           rdf:resource="http://web.resource.org/cc/PublicDomain" />
        <dc:language>en</dc:language>
        <dc:title />
      </cc:Work>
    </rdf:RDF>
  </metadata>
  <sodipodi:namedview
     inkscape:window-height="1004"
     inkscape:window-width="1920"
     inkscape:pageshadow="2"
     inkscape:pageopacity="0.0"
     guidetolerance="10.0"
     gridtolerance="10.0"
     objecttolerance="10.0"
     borderopacity="1.0"
     bordercolor="#666666"
     pagecolor="#ffffff"
     id="base"
     inkscape:zoom="1"
     inkscape:cx="352.80267"
     inkscape:cy="253.80252"
     inkscape:window-x="1680"
     inkscape:window-y="0"
     inkscape:current-layer="svg2"
     showgrid="false"
     inkscape:window-maximized="1"
     inkscape:snap-global="false"
     inkscape:snap-intersection-paths="true"
     inkscape:object-paths="true"
     inkscape:object-nodes="true"
     inkscape:snap-smooth-nodes="true" />
  <defs
     id="defs4">
    <inkscape:perspective
       sodipodi:type="inkscape:persp3d"
       inkscape:vp_x="0 : 290 : 1"
       inkscape:vp_y="0 : 1000 : 0"
       inkscape:vp_z="580 : 290 : 1"
       inkscape:persp3d-origin="290 : 193.33333 : 1"
       id="perspective2441" />
    <inkscape:perspective
       id="perspective3452"
       inkscape:persp3d-origin="30 : 20 : 1"
       inkscape:vp_z="60 : 30 : 1"
       inkscape:vp_y="0 : 1000 : 0"
       inkscape:vp_x="0 : 30 : 1"
       sodipodi:type="inkscape:persp3d" />
    <symbol
       viewBox="244.5 110 489 219.9"
       id="symbol-university">
      <path
         id="path4460"
         d="M79,43l57,119c0,0,21-96,104-96s124,106,124,106l43-133l82-17L0,17L79,43z" />
      <path
         id="path4462"
         d="M94,176l-21,39"
         stroke-width="20"
         stroke="#000000"
         fill="none" />
      <path
         id="path4464"
         d="M300,19c0,10.5-22.6,19-50.5,19S199,29.5,199,19s22.6-19,50.5-19S300,8.5,300,19z" />
      <path
         id="path4466"
         d="M112,216l-16-38L64,88c0,0-9-8-4-35s16-24,16-24"
         stroke-width="20"
         stroke="#000000"
         ill="none" />
    </symbol>
    <inkscape:perspective
       id="perspective4471"
       inkscape:persp3d-origin="372.04724 : 350.78739 : 1"
       inkscape:vp_z="744.09448 : 526.18109 : 1"
       inkscape:vp_y="0 : 1000 : 0"
       inkscape:vp_x="0 : 526.18109 : 1"
       sodipodi:type="inkscape:persp3d" />
    <inkscape:perspective
       id="perspective4668"
       inkscape:persp3d-origin="6 : 4 : 1"
       inkscape:vp_z="12 : 6 : 1"
       inkscape:vp_y="0 : 1000 : 0"
       inkscape:vp_x="0 : 6 : 1"
       sodipodi:type="inkscape:persp3d" />
  </defs>
  <g
     id="g1327">
    <path
       d="M 66.275,1.768 C 24.94,1.768 1.704,23.139 1.704,66.804 L 1.704,516.927 C 1.704,557.771 22.599,579.156 63.896,579.156 L 515.92,579.156 C 557.227,579.156 578.149,558.841 578.149,516.927 L 578.149,66.804 C 578.149,24.203 557.227,1.768 514.628,1.768 C 514.624,1.768 66.133,1.625 66.275,1.768 z "
       style="fill:#111;stroke:#eee;stroke-width:3.40799999"
       id="path1329" />
  </g>
  <path
     inkscape:connector-curvature="0"
     style="fill:#ffffff;fill-opacity:1;fill-rule:evenodd;stroke:#ffffff;stroke-width:11.69249439;stroke-linecap:round;stroke-linejoin:round;stroke-miterlimit:4;stroke-dasharray:none;stroke-opacity:1"
     d="m 534.25141,92.426537 -20.12638,0 0,441.962833 19.9162,0 0.21018,-441.962833 z"
     id="path2459"
     sodipodi:nodetypes="ccccc" />
  <path
     style="color:#000000;font-style:normal;font-variant:normal;font-weight:normal;font-stretch:normal;font-size:medium;line-height:normal;font-family:sans-serif;text-indent:0;text-align:start;text-decoration:none;text-decoration-line:none;text-decoration-style:solid;text-decoration-color:#000000;letter-spacing:normal;word-spacing:normal;text-transform:none;direction:ltr;block-progression:tb;writing-mode:lr-tb;baseline-shift:baseline;text-anchor:start;white-space:normal;clip-rule:nonzero;display:inline;overflow:visible;visibility:visible;opacity:1;isolation:auto;mix-blend-mode:normal;color-interpolation:sRGB;color-interpolation-filters:linearRGB;solid-color:#000000;solid-opacity:1;fill:#ffffff;fill-opacity:1;fill-rule:evenodd;stroke:none;stroke-width:30.84116745;stroke-linecap:round;stroke-linejoin:round;stroke-miterlimit:4;stroke-dasharray:none;stroke-dashoffset:0;stroke-opacity:1;color-rendering:auto;image-rendering:auto;shape-rendering:auto;text-rendering:auto;enable-background:accumulate"
     d="m 523.93556,39.186334 -164.41992,0.439453 c -6.82756,0.01914 -12.82992,4.525274 -14.75391,11.076172 l -28.91015,98.472651 c -0.90884,3.09866 -0.82208,6.40444 0.24804,9.45117 l 28.23047,80.40039 c 2.17361,6.19003 8.02541,10.32734 14.58594,10.3125 l 166,-0.38671 c 8.5333,-0.0206 15.42788,-6.96679 15.38476,-15.5 L 539.3965,54.528131 c -0.0442,-8.501182 -6.95967,-15.363308 -15.46094,-15.341797 z m -152.37891,32.451172 79.75977,0 0,10.875 -4.43359,0 c -10.67466,0 -14.90215,0.805988 -16.71485,3.021485 -1.40985,1.611271 -1.41015,2.418667 -1.41015,15.107419 l 0,91.43945 c 0,6.64649 0.60238,8.86044 3.2207,11.27735 2.4169,2.4169 5.03527,2.82031 14.9043,2.82031 l 4.22851,0 c 14.30004,0 25.7813,-5.23645 34.03906,-15.10547 5.43803,-6.64649 9.06556,-14.30007 13.09375,-28.19727 l 10.67383,0 -2.41406,54.17969 -134.94727,0 0,-10.87695 3.02344,0 c 10.47326,0 14.70295,-0.806 16.51563,-3.02149 1.40987,-1.61128 1.41015,-2.41647 1.41015,-15.30664 l 0,-87.20898 c 0,-12.688752 -2.8e-4,-13.496148 -1.41015,-15.107419 -1.81268,-2.215497 -6.04237,-3.021485 -16.51563,-3.021485 l -3.02344,0 0,-10.875 z"
     id="path3239"
     inkscape:connector-curvature="0" />
  <path
     d="m 179.51284,130.38357 c -19.00219,-0.35828 -34.61482,15.41466 -34.61482,34.65441 0,19.23973 15.61263,34.90919 34.61482,35.26748 19.00242,0.35827 33.92262,-14.7355 33.92262,-33.97523 0,-19.23975 -14.9202,-35.58838 -33.92262,-35.94666 z m -40.76013,83.65031 -31.84549,113.84686 c -3.23387,19.88751 -3.47989,34.42763 15.92287,49.34417 l 13.84574,10.73127 33.2304,31.43179 0,88.6141 c 0.0209,12.56496 10.08816,21.98631 22.49963,21.05601 12.41147,-0.93032 22.47878,-5.71325 22.49963,-18.28133 l 0,-104.45396 c -0.0825,-6.03165 -2.58066,-11.59011 -6.92287,-15.40394 l -34.61483,-32.71247 -9.69221,-11.73481 15.92286,-67.65407 29.76861,28.92193 c 6.46021,6.30366 16.43879,7.496 24.92287,2.9781 l 35.99949,-21.39057 0,227.76589 22.1533,-1.66054 0,-238.84253 6.9231,-3.98047 c 10.52816,-4.03461 17.07278,-15.14276 15.32647,-26.01349 -1.74632,-10.87071 -11.24723,-18.16517 -22.24957,-17.08242 l 0,-8.99976 -22.1533,1.66053 0,17.99976 -40.84571,23.83048 -37.38394,-36.65867 c -3.19615,-3.01427 -7.30621,-4.88209 -11.7691,-5.34851 -0.66494,-0.38349 -1.46974,-1.07065 -2.07734,-1.22917 l -39.46105,-6.73436 z m -29.76861,3.61625 c -12.960481,1.27871 -28.370639,5.07885 -42.922609,18.44793 -19.402531,17.82525 -32.073412,46.19776 -35.307045,67.7224 -3.233878,19.8875 11.523069,25.37844 27.691953,29.07759 16.168662,3.69939 30.688746,-3.99472 33.9224,-15.69621 4.850799,-15.09738 29.076621,-100.48577 29.076621,-100.48577 -3.6381,0.27269 -8.1413,0.51857 -12.46132,0.93406 z m -8.30753,155.69734 -6.923099,44.82596 0,0.69246 c -0.246892,0.47193 -0.477845,0.95115 -0.692468,1.4368 -0.796324,1.14785 -1.491661,2.35854 -2.07734,3.61703 l -32.537948,84.13013 c -4.593926,11.81612 0.984581,24.42149 12.458159,28.15087 11.473575,3.72939 22.035825,1.61328 26.620721,-10.20577 L 132.5216,437.42152 c 1.41556,-3.1385 2.12577,-6.50539 2.07736,-9.84792 0.0144,-0.46259 0.0144,-0.92446 0,-1.3849 l 4.15375,-12.77268 c -21.01946,-16.43245 -38.07637,-28.60874 -38.07637,-40.06853 z"
     id="circle3-5"
     style="color:#000000;display:inline;overflow:visible;visibility:visible;fill:#ffffff;fill-opacity:1;fill-rule:nonzero;stroke:none;marker:none;enable-background:accumulate"
     inkscape:connector-curvature="0"
     sodipodi:nodetypes="sssssccccccscccccccccccccscccccccccccscccccccccccsccccccc" />
</svg>

<svg width="580" height="580" viewBox="0 0 580 580" fill="none" xmlns="http://www.w3.org/2000/svg">
<g clip-path="url(#clip0)">
<path d="M66.2751 1.76815C24.9401 1.76815 1.7041 23.1391 1.7041 66.8041V516.927C1.7041 557.771 22.5991 579.156 63.8961 579.156H515.92C557.227 579.156 578.149 558.841 578.149 516.927V66.8041C578.149 24.2031 557.227 1.76815 514.628 1.76815C514.624 1.76815 66.1331 1.62515 66.2751 1.76815Z" fill="#111111" stroke="#EEEEEE" stroke-width="3.408"/>
<path fill-rule="evenodd" clip-rule="evenodd" d="M534.251 92.4268H514.125V534.39H534.041L534.251 92.4268Z" fill="white" stroke="white" stroke-width="11.6925" stroke-linecap="round" stroke-linejoin="round"/>
<path fill-rule="evenodd" clip-rule="evenodd" d="M523.936 39.1866L359.516 39.626C352.688 39.6452 346.686 44.1513 344.762 50.7022L315.852 149.175C314.943 152.274 315.03 155.579 316.1 158.626L344.33 239.026C346.504 245.216 352.356 249.354 358.916 249.339L524.916 248.952C533.45 248.932 540.344 241.985 540.301 233.452L539.397 54.5284C539.353 46.0272 532.437 39.1651 523.936 39.1866V39.1866ZM371.557 71.6377H451.317V82.5127H446.883C436.209 82.5127 431.981 83.3187 430.168 85.5342C428.758 87.1455 428.758 87.9529 428.758 100.642V192.081C428.758 198.728 429.361 200.942 431.979 203.358C434.396 205.775 437.014 206.179 446.883 206.179H451.112C465.412 206.179 476.893 200.942 485.151 191.073C490.589 184.427 494.216 176.773 498.244 162.876H508.918L506.504 217.056H371.557V206.179H374.58C385.054 206.179 389.283 205.373 391.096 203.157C392.506 201.546 392.506 200.741 392.506 187.851V100.642C392.506 87.9529 392.506 87.1455 391.096 85.5342C389.283 83.3187 385.054 82.5127 374.58 82.5127H371.557V71.6377V71.6377Z" fill="white"/>
<path d="M179.513 130.383C160.511 130.025 144.898 145.798 144.898 165.038C144.898 184.278 160.511 199.947 179.513 200.305C198.515 200.664 213.436 185.57 213.436 166.33C213.436 147.09 198.515 130.742 179.513 130.383ZM138.753 214.034L106.907 327.881C103.673 347.768 103.427 362.308 122.83 377.225L136.676 387.956L169.906 419.388V508.002C169.927 520.567 179.994 529.988 192.406 529.058C204.817 528.128 214.885 523.345 214.906 510.777V406.323C214.823 400.291 212.325 394.733 207.983 390.919L173.368 358.206L163.676 346.471L179.598 278.817L209.367 307.739C215.827 314.043 225.806 315.235 234.29 310.717L270.289 289.327V517.093L292.443 515.432V276.59L299.366 272.609C309.894 268.575 316.439 257.466 314.692 246.596C312.946 235.725 303.445 228.431 292.443 229.513V220.513L270.289 222.174V240.174L229.444 264.004L192.06 227.346C188.864 224.331 184.754 222.463 180.291 221.997C179.626 221.614 178.821 220.926 178.213 220.768L138.752 214.034L138.753 214.034ZM108.984 217.65C96.0237 218.929 80.6135 222.729 66.0615 236.098C46.659 253.923 33.9881 282.296 30.7545 303.82C27.5206 323.708 42.2776 329.199 58.4464 332.898C74.6151 336.597 89.1352 328.903 92.3688 317.202C97.2196 302.104 121.445 216.716 121.445 216.716C117.807 216.989 113.304 217.234 108.984 217.65V217.65ZM100.677 373.347L93.7535 418.173V418.866C93.5066 419.338 93.2757 419.817 93.061 420.303C92.2647 421.45 91.5694 422.661 90.9837 423.92L58.4458 508.05C53.8518 519.866 59.4303 532.471 70.9039 536.201C82.3775 539.93 92.9397 537.814 97.5246 525.995L132.522 437.421C133.937 434.283 134.647 430.916 134.599 427.573C134.613 427.111 134.613 426.649 134.599 426.189L138.753 413.416C117.733 396.983 100.676 384.807 100.676 373.347L100.677 373.347Z" fill="white"/>
</g>
<defs>
<clipPath id="clip0">
<path d="M0 0H580V580H0V0Z" fill="white"/>
</clipPath>
</defs>
</svg>
